symbolic/24x24/emblems/vcs-update-required.svg

<svg xmlns="http://www.w3.org/2000/svg" width="24" height="24"><circle style="fill:#385ec3" cx="12" cy="12" r="10"/><path style="fill:#fff" d="M12 3v7l5-3.5zm0 2a7 7 0 0 0-7 7 7 7 0 0 0 7 7 7 7 0 0 0 7-7h-3a4 4 0 0 1-4 4 4 4 0 0 1-4-4 4 4 0 0 1 4-4z"/></svg>

<svg xmlns="http://www.w3.org/2000/svg" width="24" height="24" version="1.1">
 <circle style="fill:#385ec3" cx="12" cy="12" r="10"/>
 <path style="fill:#ffffff" d="M 12,3 V 10 L 17,6.5 Z M 12,5 A 7,7 0 0 0 5,12 7,7 0 0 0 12,19 7,7 0 0 0 19,12 H 16 A 4,4 0 0 1 12,16 4,4 0 0 1 8,12 4,4 0 0 1 12,8 Z"/>
</svg>
